!!!SOCIAL_FUNCTION:	dream songs
!!!PDT:	1932
!!!OTL: No_45_Pigeon's_Dream_Song.krn
!!!REG: Wisconsin
!!!LANG: Non-Tone
!!!LING_GROUP: Algonquin
**kern
*staff1
=1-
*clefF4
*k[]
*M2/4
4r
8r
16d\LL
16d\JJ
=2!|:
8.d\L
16d\Jk
(4d\
=3
4c\)
8.c\L
16c\Jk
=4
4c\
16A\
16r
16c\LL
16c\JJ
=5
8.c\L
16d\Jk
(4c\
=6
4A\)
8A\L
16G\L
16G\JJ
=7||
*M3/4
2G\
16G\
16r
16c\LL
16c\JJ
=8||
*M2/4
8.c\L
16G\Jk
4G\
=9||
*M3/4
8.G\L
16G\Jk
(4G\
16E\)
16r
16G\LL
16G\JJ
=10||
*M2/4
8.G\L
16A\Jk
4G\
=11||
*M3/4
8.D/L
16C/Jk
4C/
8AA/L
16C/L
16C/JJ
=12||
*M2/4
8.C/L
16D/Jk
4C/
=13
4GG/
8r
16d\LL
16d\JJ
=14:|!
4GG/
4r
==
*-
